app/dist/common/images/nintendo.svg

<svg height="18" width="18" xmlns="http://www.w3.org/2000/svg"><path d="m0 0h18v18h-18z" fill="#e60012"/><g fill="#fff"><path d="m8.09 14a4.9 4.9 0 0 1 -5.09-5 4.92 4.92 0 0 1 5.08-5h1.84a4.92 4.92 0 0 1 5.08 5 4.9 4.9 0 0 1 -5.09 5h-1.81zm0-9c-2.39 0-4.1 1.72-4.09 4 .02 2.28 1.67 4 4.1 4h1.8c2.43 0 4.06-1.7 4.1-4s-1.68-4-4.1-4h-1.8z"/><path d="m6.01 12-.01-6h1.77l2.23 3.7v-3.7h1.99l.01 6h-1.76l-2.24-3.81v3.81z"/></g></svg>

<!-- by TradingView --><svg xmlns="http://www.w3.org/2000/svg" width="18" height="18"><path fill="#E60012" d="M0 0h18v18H0z"/><path d="M8.09 14A4.9 4.9 0 013 9a4.92 4.92 0 015.08-5h1.84A4.92 4.92 0 0115 9a4.9 4.9 0 01-5.09 5H8.1zm0-9C5.7 5 3.99 6.72 4 9c.02 2.28 1.67 4 4.1 4h1.8c2.43 0 4.06-1.7 4.1-4 .04-2.3-1.68-4-4.1-4H8.1z" fill="#fff"/><path d="M6.01 12L6 6h1.77L10 9.7V6h1.99l.01 6h-1.76L8 8.19V12H6.01z" fill="#fff"/></svg>
